X: 875
T: Gönül Durmaz Su Gibi Çağlar
C: Dede Efendi
O: Turkey
F: http://compmusic.upf.edu/node/140
N: sehnaz--sarki--aksak--gonul_durmaz--dede_efendi
N: makam= sehnaz
N: form= sarki
N: usul= aksak = 9/8
M: 9/8
L: 1/16
K: C _7/8B ^1/4f ^c ^g
Q: 1/4=240
%%MIDI tuningsystem comma53
.a4 .e4 .c4 .B4 A2 | .e4.^d4.g4.a6  | \
w:  ARANAĞME  |   | 
.a4 .e4 .d4 .c6 | (3f2e2d2d2 c2c2 B2A4g2  | 
w:   |   | 
.a4 .e4 .c4 .B4 A2 | .e4.^d4.g4.a6  | \
w:  ARANAĞME  |   | 
.a4 .e4 .d4 .c6 | (3f2e2d2d2 c2c2 B2A6  | 
w:   |   | 
aga=b a2{b}g2 =f2e2 d4 e2 | =f2 {g}fed2 c2d8z2  | \
w:  Gö *  *  *  *  *  *  nül   |  dur *  *  *  *  *  maz   | 
=f3e d4 f2e2 d4 c2 | 
w:  su  *  gi bi  *  çağ  | 
d2 e2f2 g2a2 g2a4z2  | aga=b a2{b}g2 =f2e2 d4 e2 | \
w:  lar    |  Gö *  *  *  *  *  *  nül   | 
=f2 {g}fed2 c2d8z2  | 
w:  dur *  *  *  *  *  maz   | 
=f3e d4 f2e2 d4 c2 | d2 e2^3/4f2 =g2f2 a2g4z2  | \
w:  su  *  gi bi  *  çağ  |  lar    | 
=g2a2 g2^3/4f2 g2a2 g4 f2 | 
w:  Nâr_ *  *  *  ı   | 
ag a=ba2 g2f2 e2d2 c2B2  | A3z e2d2 c2B2 {d}c2B2 BA | 
w:  has *  *  *  *  *  ret   |  *  ci ğe rim  *  *  dağ  | 
A3Bc2 d2e2 ^3/4f2=g4z2  | =g2a2 g2^3/4f2 g2a2 g4 f2 | \
w:  lar    |  Nâr_ *  *  *  ı   | 
ag a=ba2 g2f2 e2d2 c2B2  | 
w:  has *  *  *  *  *  ret   | 
A3z e2d2 c2B2 {d}c2B2 BA | A6 =g2^3/4f2 g2a3/2_2/4b/ agfg  | \
w:  *  ci ğe rim  *  *  dağ  |  lar   SAZ  | 
a4 =g2a2 a4 a6 | 
w:  *  A ra mız da   | 
z2 a4 =b2a2 b2a2 =g2^3/4f2  | a3=g {a}^3/4f2a2 g2a2 g4 f2 | \
w:  kar lı  dağ *  lar    |  Yâr   | 
^3/4f2 =g2a2 =b2{d'}=c'4b4a2  | 
w:  yâr   | 
a2a4=b2 a2=g2 g4 ^f2 | ^f6 ^e2d3ef6  | \
w:  *  göz le rim  *  ağ  |  lar   SAZ  | 
=g4 g4 g4 {g}f2e2 d2 | e4=f4e2 d2c2 B2A2  | 
w:  Sî nem de *  ki   |  yâ re le *  ri   | 
e2d2 d2c2 c2B2 {d}c2B2 BA | A3Bc2 d2e2 ^3/4f2=g6  | \
w:  kim  *  ge *  lir  *  *  bağ  |  lar    | 
=g4 g4 g4 {g}f2e2 d2 | 
w:  Sî nem de *  ki   | 
e4=f4e2 d2c2 B2A2  | e2d2 d2c2 c2B2 {d}c2B2 BA | \
w:  yâ re le *  ri   |  kim  *  ge *  lir  *  *  bağ  | 
A6 efed cBA4z2  | 
w:  lar   SAZ  | 
.a4 .e4 .c4 .B4 A2 | .e4.^d4.g4.a6  | \
w:  ARANAĞME  |   | 
.a4 .e4 .d4 .c6 | (3f2e2d2d2 c2c2 B2A4g2  | 
w:   |   | 
.a4 .e4 .c4 .B4 A2 | .e4.^d4.g4.a6  | \
w:  ARANAĞME  |   | 
.a4 .e4 .d4 .c6 | (3f2e2d2d2 c2c2 B2A6  | 
w:   |   | 
aga=b a2{b}g2 =f2e2 d4 e2 | =f2 {g}fed2 c2d8z2  | \
w:  Gö *  *  *  *  *  *  nül   |  dur *  *  *  *  *  maz   | 
=f3e d4 f2e2 d4 c2 | 
w:  su  *  gi bi  *  çağ  | 
d2 e2f2 g2a2 g2a4z2  | aga=b a2{b}g2 =f2e2 d4 e2 | \
w:  lar    |  Gö *  *  *  *  *  *  nül   | 
=f2 {g}fed2 c2d8z2  | 
w:  dur *  *  *  *  *  maz   | 
=f3e d4 f2e2 d4 c2 | d2 e2^3/4f2 =g2f2 a2g4z2  | \
w:  su  *  gi bi  *  çağ  |  lar    | 
=g2a2 g2^3/4f2 g2a2 g4 f2 | 
w:  Nâr_ *  *  *  ı   | 
ag a=ba2 g2f2 e2d2 c2B2  | A3z e2d2 c2B2 {d}c2B2 BA | 
w:  has *  *  *  *  *  ret   |  *  ci ğe rim  *  *  dağ  | 
A3Bc2 d2e2 ^3/4f2=g4z2  | =g2a2 g2^3/4f2 g2a2 g4 f2 | \
w:  lar    |  Nâr_ *  *  *  ı   | 
ag a=ba2 g2f2 e2d2 c2B2  | 
w:  has *  *  *  *  *  ret   | 
A3z e2d2 c2B2 {d}c2B2 BA | A6 =g2^3/4f2 g2a3/2_2/4b/ agfg  | \
w:  *  ci ğe rim  *  *  dağ  |  lar   SAZ  | 
a4 =g2a2 a4 a6 | 
w:  *  A ra mız da   | 
z2 a4 =b2a2 b2a2 =g2^3/4f2  | a3=g {a}^3/4f2a2 g2a2 g4 f2 | \
w:  kar lı  dağ *  lar    |  Yâr   | 
^3/4f2 =g2a2 =b2{d'}=c'4b4a2  | 
w:  yâr   | 
a2a4=b2 a2=g2 g4 ^f2 | ^f6 ^e2d3ef6  | \
w:  *  göz le rim  *  ağ  |  lar   SAZ  | 
=g4 g4 g4 {g}f2e2 d2 | e4=f4e2 d2c2 B2A2  | 
w:  Sî nem de *  ki   |  yâ re le *  ri   | 
e2d2 d2c2 c2B2 {d}c2B2 BA | A3Bc2 d2e2 ^3/4f2=g6  | \
w:  kim  *  ge *  lir  *  *  bağ  |  lar    | 
=g4 g4 g4 {g}f2e2 d2 | 
w:  Sî nem de *  ki   | 
e4=f4e2 d2c2 B2A2  | e2d2 d2c2 c2B2 {d}c2B2 BA | \
w:  yâ re le *  ri   |  kim  *  ge *  lir  *  *  bağ  | 
A6 efed cBA4z2  | 
w:  lar   SAZ  | 
|


